module-11/build/images/about/twitter.svg

<svg xmlns="http://www.w3.org/2000/svg" width="17" height="14"><path fill-rule="evenodd" fill="#FFF" d="M15.969 1.075a6.694 6.694 0 01-2.084.774A3.313 3.313 0 0011.492.841c-1.812 0-3.28 1.429-3.28 3.19 0 .25.029.493.085.726a9.403 9.403 0 01-6.76-3.332 3.105 3.105 0 00-.444 1.603c0 1.107.58 2.083 1.459 2.654a3.342 3.342 0 01-1.485-.4v.04c0 1.545 1.131 2.833 2.63 3.128a3.404 3.404 0 01-1.482.054c.418 1.267 1.629 2.189 3.063 2.216a6.696 6.696 0 01-4.072 1.364c-.265 0-.526-.015-.783-.044a9.475 9.475 0 005.028 1.433c6.032 0 9.331-4.86 9.331-9.075l-.011-.413a6.503 6.503 0 001.639-1.649 6.643 6.643 0 01-1.883.502 3.225 3.225 0 001.442-1.763z"/></svg>

<svg 
 xmlns="http://www.w3.org/2000/svg"
 xmlns:xlink="http://www.w3.org/1999/xlink"
 width="17px" height="14px">
<path fill-rule="evenodd"  fill="rgb(255, 255, 255)"
 d="M15.969,1.075 C15.335,1.440 14.633,1.706 13.885,1.849 C13.287,1.228 12.435,0.841 11.492,0.841 C9.680,0.841 8.212,2.270 8.212,4.031 C8.212,4.281 8.241,4.524 8.297,4.757 C5.571,4.624 3.155,3.354 1.537,1.425 C1.255,1.895 1.093,2.443 1.093,3.028 C1.093,4.135 1.673,5.111 2.552,5.682 C2.015,5.665 1.509,5.521 1.067,5.282 L1.067,5.322 C1.067,6.867 2.198,8.155 3.697,8.450 C3.422,8.522 3.133,8.562 2.833,8.562 C2.621,8.562 2.417,8.541 2.215,8.504 C2.633,9.771 3.844,10.693 5.278,10.720 C4.157,11.575 2.742,12.084 1.206,12.084 C0.941,12.084 0.680,12.069 0.423,12.040 C1.875,12.945 3.598,13.473 5.451,13.473 C11.483,13.473 14.782,8.613 14.782,4.398 L14.771,3.985 C15.414,3.537 15.971,2.975 16.410,2.336 C15.822,2.590 15.191,2.762 14.527,2.838 C15.204,2.443 15.723,1.818 15.969,1.075 Z"/>
</svg>
